!!!ONB: MCCC : ILB0174_01 : Extracted Monophonic Melody
!!!COM: Beethoven, Ludwig van
!!!OPR: Piano Sonata No.13
!!!OMV: 1
!!!SCT: Op.27 No.1
!!!ODT: 1800///
**kern
*thru
*Ipiano
*staff1
*>A
*clefG2
*k[b-e-a-]
*E-:
*M4/4
*MM100
=1
4b-
4b-
2g
=2
4f
4f
2b-
=3
4b-
4b-
2g
=4
8f
4b-
8b-
4e-
4r
=5
*>A
*M4/4
4b-
4b-
2g
=6
4f
4f
2b-
=7
4b-
4b-
2g
=8
8f
4b-
8b-
4e-
4r
=9
*>B
4a-
4a-
2dd
=10
4dd
4dd
2ff
=11
4ff
4ff
4.aa-
8gg
=12
*>B1
8gg
8ff
8ee-
8dd
4ff
8ee-
8r
=13
*>B
4a-
4a-
2dd
=14
4dd
4dd
2ff
=15
4ff
4ff
4.aa-
8gg
=16
*>B2
8gg
8ff
8ee-
8dd
4ff
8ee-
8B-
=17
*>C
4g
4g
4.g
8f
=18
8e-
8f
8g
8a-
4a
8b-
8e-
=19
4b-
4b-
4.b-
8a-
=20
*>C1
8g
8f
8a-
8d
4f
8e-
8B-
=21
*>C
4g
4g
4.g
8f
=22
8e-
8f
8g
8a-
4a
8b-
8e-
=23
4b-
4b-
4.b-
8a-
=24
*>C2
8g
8f
8a-
8d
4f
8e-
8g
=25
*>D
4ee
4ee
4.ee
8cc
=26
8dd
8ee
8ff
8gg
[2aa-
=27
8aa-]
16aa-
16gg
16ff
16ee-
16dd
16cc
2b-[
=28
8b-]
8a
8a-
8f
4e-
4r
=29
4ee
4ee
4.ee
8cc
=30
8dd
8ee
8ff
8gg
[2aa-
=31
8aa-]
16aa-
16gg
16ff
16ee-
16dd
16cc
2b-[
=32
8b-]
8a
8a-
8f
4e-
4r
=33
4b-
4b-
2g
=34
4f
4f
2b-
=35
4b-
4b-
2g
=36
8f
4b-
8b-
4e-
8r
8B-
=37
8b-
8b-
8b-
8b-
2g
=38
8f
8f
8f
8f
2b-
=39
8b-
8b-
8b-
8b-
2g
=40
8f
4b-
8b-
4e-
4r
=41
8a-
8a-
8a-
8a-
2dd
=42
8dd
8dd
8dd
8dd
2ff
=43
8ff
8ff
8ff
8ff
4.aa-
8gg
=44
8gg
8ff
8ee-
8dd
4ff
8ee-
8r
=45
16g
16a-
16g
16a-
16g
16a-
16g
16a-
2dd
=46
16cc#
16dd
16cc#
16dd
16cc#
16dd
16cc#
16dd
[2ff
=47
8ff]
16ff
16ee
16ff
16ee
16ff
16ee
16ff
4.aa-
8gg
=48
8gg
8ff
8ee-
8dd
4ff
8ee-
8r
=49
*>E
*k[]
*M6/8
*MM120
16G
16F
=50
16E
16G
16c
16G
16e
16c
16g
16e
16cc
16g
16ee
16cc
=51
8gg
8ee
8cc
4b
16d
16c
=52
16B
16d
16g
16d
16b
16g
16dd
16b
16gg
16dd
16bb
16gg
=53
8ddd
8bb
8ff
4ee
16gg
16ff
=54
16ee
16gg
16ee
16dd
16cc
16ee
16cc
16b
16a
16cc
16a
16g
=55
16f
16a
16f
16e
16d
16f
16d
16c
16B
16d
16B
16A
=56
2.r
=57
4.r
4r
*>E
*M6/8
16G
16F
=58
16E
16G
16c
16G
16e
16c
16g
16e
16cc
16g
16ee
16cc
=59
8gg
8ee
8cc
4b
16d
16c
=60
16B
16d
16g
16d
16b
16g
16dd
16b
16gg
16dd
16bb
16gg
=61
8ddd
8bb
8ff
4ee
16gg
16ff
=62
16ee
16gg
16ee
16dd
16cc
16ee
16cc
16b
16a
16cc
16a
16g
=63
16f
16a
16f
16e
16d
16f
16d
16c
16B
16d
16B
16A
=64
2.r
=65
4.r
4r
*>F
8r
=66
4.r
16d
16B
16g
16d
8b
=67
4.r
16f
16d
16b
16f
8dd
=68
16F
16B
16d
16B
16f
16d
16b
16f
16dd
16b
8ff
=69
16b
16f
16dd
16b
8ff
16b
16f
16dd
16b
8ff
=70
16ee
16gg
16ee
16dd
16cc
16ee
16cc
16b
16a
16cc
16a
16g
=71
16f
16a
16f
16e
16d
16f
16d
16c
16B
16A
16G
16F
=72
16E
16g
16e
16d
16c
16B-
16A
16a
16f
16e
16d
16c
=73
2.r
=74
4.r
16d
16B
16g
16d
8b
=75
4.r
16f
16d
16b
16f
8dd
=76
16F
16B
16d
16B
16f
16d
16b
16f
16dd
16b
8ff
=77
16b
16f
16dd
16b
8ff
16b
16f
16dd
16b
8ff
=78
16ee-
16gg
16ee-
16dd
16cc
16ee-
16cc
16b-
16a-
16cc
16a-
16g
=79
16f
16a-
16f
16e-
16d
16f
16d
16c
16B-
16a-
16f
16e-
=80
16d
16f
16d
16c
16B-
16a-
16f
16e-
16d
16a-
16f
16e-
=81
16d
16a-
16f
16e-
16d
16a-
16f
16e-
16d
16a-
16f
16e-
=82
16d
16e-
16f
16g
16a-
16b-
16cc
16dd
16ee-
16ee
16ff
16gg
=83
2.aa-
=84
*k[b-e-a-]
*M4/4
*MM100
4b-
4b-
2g
=85
4f
4f
2b-
=86
4b-
4b-
2g
=87
8f
4b-
8b-
4e-
4r
=88
2r
16r
16b-
16cc
16dd
16ee-
16ff
16gg
16ee-
=89
8aa-
8r
4r
16aa-
16gg
16ff
16ee-
16dd
16cc
16b-
16dd
=90
8ee-
8r
4r
16r
16b-
16cc
16dd
16ee-
16ff
16gg
16ee-
=91
16aa-
16ff
16dd
16b-
16a-
16f
16d
16B-
8e-
8r
4r
=92
4a-
4a-
2dd
=93
4dd
4dd
2ff
=94
4ff
4ff
4.aa-
8gg
=95
8gg
8ff
8ee-
8dd
4ff
8ee-
8r
=96
2r
8r
16b-
16cc
16dd
16ee-
16ff
16gg
=97
8aa
[4.bb-
8bb-]
16b-
16cc
16dd
16ee-
16ff
16gg
=98
8aa
[4.bb-
8bb-]
8bb
8ccc
8ddd
=99
8eee-
8ccc
8gg
[8aa-
8aa-]
8dd
8ee-
8e-
=100
4dd-
4dd-
2r
=101
4cc
4cc
2r
=102
4a-
4a-
2r
=103
4g
4r
4a-
4r
=104
4g
4r
4a-
4r
=105
4g
4r
2r
=106
4g
4r
2r
=107
1eee-
==
*-
